X: 23
T:Tam's Hunting Horn (D Major)
M:6/8
L:1/8
R:Jig
K:D
A|dfA dfA|d2 f a2 a|b2 b a2 f|e3-e2 A|ceA ceA|c2 e g2 g|!
a2 g f2 e|1f3-f2:||2d3-d2||e/d/|c>AA e2 c|d>AA f2 d|!
gdB dgb|a3-a2 a|afd afd|A2 d ded|c2 A Ace|d3-d2:||
% <A name="D1X024">
